packages/foundations/assets/icons/functional/images/maps/navigation_to_right_24.svg

<svg width="24" height="24" viewBox="0 0 24 24" fill="none" xmlns="http://www.w3.org/2000/svg">
<g clip-path="url(#clip0_2213_5408)">
<path fill-rule="evenodd" clip-rule="evenodd" d="M13.1953 3.09998C13.4607 3.09998 13.7261 3.1994 13.8919 3.39824L17.7014 7.20382C17.9005 7.36959 18 7.63478 18 7.89998C18 8.13199 17.9005 8.39719 17.7014 8.59613L13.6919 12.6017C13.5261 12.7674 13.2607 12.9 12.9953 12.9C12.4313 12.9 12 12.4359 12 11.9056C12 11.6404 12.0995 11.3752 12.2986 11.1762L14.577 8.89998H11C9.34315 8.89998 8 10.2431 8 11.9V19.9C8 20.4523 7.55228 20.9 7 20.9C6.44772 20.9 6 20.4523 6 19.9V11.9C6 9.13855 8.23858 6.89998 11 6.89998H14.577L12.4986 4.82373C12.2995 4.61139 12.2 4.36828 12.2 4.0944C12.2 3.56401 12.6313 3.09998 13.1953 3.09998Z" fill="#1A1C1F"/>
</g>
<defs>
<clipPath id="clip0_2213_5408">
<rect width="24" height="24" fill="white"/>
</clipPath>
</defs>
</svg>

<svg xmlns="http://www.w3.org/2000/svg" width="24" height="24" fill="none"><g clip-path="url(#a)"><path fill="#1A1C1F" fill-rule="evenodd" d="M13.195 3.1c.266 0 .531.1.697.298l3.81 3.806c.198.166.298.43.298.696 0 .232-.1.497-.299.696l-4.01 4.006a1.03 1.03 0 0 1-.696.298 1 1 0 0 1-.995-.994c0-.266.1-.53.299-.73L14.577 8.9H11a3 3 0 0 0-3 3v8a1 1 0 1 1-2 0v-8a5 5 0 0 1 5-5h3.577l-2.078-2.076a1.04 1.04 0 0 1-.299-.73c0-.53.431-.994.995-.994" clip-rule="evenodd"/></g><defs><clipPath id="a"><path fill="#fff" d="M0 0h24v24H0z"/></clipPath></defs></svg>
